images/press/logos/512x512.svg

<svg height="512" viewBox="0 0 512 512" width="512" xmlns="http://www.w3.org/2000/svg"><g fill="none" fill-rule="evenodd" transform="translate(84.039251 104.592328)"><path d="m302.2871 117.711837.004473.006983c-.000745-.001164-.001491-.002327-.002237-.003491-.000745-.001164-.001491-.002328-.002236-.003492zm-198.433545-104.8957001c10.62561 5.9023432 20.669514 13.3701059 29.247105 21.6703872 13.826718-2.5046712 28.083692-3.7676802 42.547189-3.7676802 43.297556 0 84.347453 11.359965 115.580622 31.9808095 16.174196 10.6839884 29.030256 23.3603288 38.206763 37.6803596 10.219448 15.956606 15.399735 33.115739 15.399735 51.502303 0 17.892034-5.180287 35.058282-15.399735 51.01133-9.176507 14.327147-22.032567 26.999929-38.206763 37.683918-31.233169 20.620844-72.279624 31.973694-115.580622 31.973694-14.463497 0-28.717029-1.263009-42.547189-3.764123-8.581033 8.296724-18.621495 15.768044-29.247105 21.670387-56.773185 28.437269-103.853555.668861-103.853555.668861s43.7725592-37.16804 36.6543983-69.750113c-19.5852687-20.076506-30.19711112-44.2907-30.19711112-69.981369 0-25.206812 10.61528442-49.421006 30.19711112-69.5010694 7.1169822-32.5731206-36.63990347-69.7342469-36.6543947-69.7465527.01400078-.0082627 47.08881-27.7677388 103.8535514.668858z" fill="#db2323" fill-rule="nonzero"/><path d="m69.925033 208.173342c-19.4842498-15.379788-31.1795309-35.060715-31.1795309-56.511616 0-49.222762 61.5816799-89.1256952 137.5465329-89.1256952 75.964852 0 137.546532 39.9029332 137.546532 89.1256952s-61.58168 89.125695-137.546532 89.125695c-18.72224 0-36.570815-2.42379-52.839141-6.813527l-11.893733 11.489243c-6.462579 6.242795-14.0372363 11.892227-21.9327209 16.344026-10.4653813 5.14781-20.7997454 7.956386-31.0241852 8.81336.5767784-1.050317 1.1078862-2.114309 1.6780438-3.166279 11.9174804-21.988367 15.1323918-41.748668 9.6447343-59.280902z" fill="#fff"/><path d="m110.48867 171.559023c-11.1931553 0-20.2670008-9.04371-20.2670008-20.199692 0-11.155981 9.0738455-20.199691 20.2670008-20.199691 11.193156 0 20.267001 9.04371 20.267001 20.199691 0 11.155982-9.073845 20.199692-20.267001 20.199692zm65.249857 0c-11.193155 0-20.267001-9.04371-20.267001-20.199692 0-11.155981 9.073846-20.199691 20.267001-20.199691 11.193156 0 20.267002 9.04371 20.267002 20.199691 0 11.155982-9.073846 20.199692-20.267002 20.199692zm65.249858 0c-11.193156 0-20.267002-9.04371-20.267002-20.199692 0-11.155981 9.073846-20.199691 20.267002-20.199691 11.193155 0 20.267001 9.04371 20.267001 20.199691 0 11.155982-9.073846 20.199692-20.267001 20.199692z" fill="#db2323" fill-rule="nonzero"/></g></svg>

<?xml version="1.0" encoding="UTF-8"?>
<svg width="512px" height="512px" viewBox="0 0 512 512" version="1.1" xmlns="http://www.w3.org/2000/svg" xmlns:xlink="http://www.w3.org/1999/xlink">
    <!-- Generator: Sketch 51 (57462) - http://www.bohemiancoding.com/sketch -->
    <title>Icon </title>
    <desc>Created with Sketch.</desc>
    <defs></defs>
    <g id="Icon-" stroke="none" stroke-width="1" fill="none" fill-rule="evenodd">
        <g id="Group" transform="translate(84.000000, 104.000000)">
            <g id="icon" transform="translate(0.039251, 0.592328)">
                <path d="M302.2871,117.711837 L302.291573,117.71882 C302.290828,117.717656 302.290082,117.716493 302.289336,117.715329 C302.288591,117.714165 302.287845,117.713001 302.2871,117.711837 Z M103.853555,12.8161369 C114.479165,18.7184801 124.523069,26.1862428 133.10066,34.4865241 C146.927378,31.9818529 161.184352,30.7188439 175.647849,30.7188439 C218.945405,30.7188439 259.995302,42.0788089 291.228471,62.6996534 C307.402667,73.3836418 320.258727,86.0599822 329.435234,100.380013 C339.654682,116.336619 344.834969,133.495752 344.834969,151.882316 C344.834969,169.77435 339.654682,186.940598 329.435234,202.893646 C320.258727,217.220793 307.402667,229.893575 291.228471,240.577564 C259.995302,261.198408 218.948847,272.551258 175.647849,272.551258 C161.184352,272.551258 146.93082,271.288249 133.10066,268.787135 C124.519627,277.083859 114.479165,284.555179 103.853555,290.457522 C47.08037,318.894791 0,291.126383 0,291.126383 C0,291.126383 43.7725592,253.958343 36.6543983,221.37627 C17.0691296,201.299764 6.45728718,177.08557 6.45728718,151.394901 C6.45728718,126.188089 17.0725716,101.973895 36.6543983,81.8938316 C43.7713805,49.320711 0.0144948349,12.1595847 3.60012553e-06,12.1472789 C0.014004383,12.1390162 47.0888136,-15.6204599 103.853555,12.8161369 Z" id="rocket" fill="#DB2323" fill-rule="nonzero"></path>
                <path d="M69.925033,208.173342 C50.4407832,192.793554 38.7455021,173.112627 38.7455021,151.661726 C38.7455021,102.438964 100.327182,62.5360308 176.292035,62.5360308 C252.256887,62.5360308 313.838567,102.438964 313.838567,151.661726 C313.838567,200.884488 252.256887,240.787421 176.292035,240.787421 C157.569795,240.787421 139.72122,238.363631 123.452894,233.973894 L111.559161,245.463137 C105.096582,251.705932 97.5219247,257.355364 89.6264401,261.807163 C79.1610588,266.954973 68.8266947,269.763549 58.6022549,270.620523 C59.1790333,269.570206 59.7101411,268.506214 60.2802987,267.454244 C72.1977791,245.465877 75.4126905,225.705576 69.925033,208.173342 Z" id="bubble" fill="#FFFFFF"></path>
                <path d="M110.48867,171.559023 C99.2955147,171.559023 90.2216692,162.515313 90.2216692,151.359331 C90.2216692,140.20335 99.2955147,131.15964 110.48867,131.15964 C121.681826,131.15964 130.755671,140.20335 130.755671,151.359331 C130.755671,162.515313 121.681826,171.559023 110.48867,171.559023 Z M175.738527,171.559023 C164.545372,171.559023 155.471526,162.515313 155.471526,151.359331 C155.471526,140.20335 164.545372,131.15964 175.738527,131.15964 C186.931683,131.15964 196.005529,140.20335 196.005529,151.359331 C196.005529,162.515313 186.931683,171.559023 175.738527,171.559023 Z M240.988385,171.559023 C229.795229,171.559023 220.721383,162.515313 220.721383,151.359331 C220.721383,140.20335 229.795229,131.15964 240.988385,131.15964 C252.18154,131.15964 261.255386,140.20335 261.255386,151.359331 C261.255386,162.515313 252.18154,171.559023 240.988385,171.559023 Z" id="circles" fill="#DB2323" fill-rule="nonzero"></path>
            </g>
        </g>
    </g>
</svg>
